!!!OTL: Die Bauern von St. Poelten
!!!ARE: Europa, Mitteleuropa, Deutschland
!!!SCT: A0296
!!!YEM: Copyright 1995, estate of Helmut Schaffrath.
**kern
*ICvox
*Ivox
*M3/1
*k[]
*a:
{2ee
=1
1ccn
1a
2ee
2dd
=2
2.ccn
4b
2ccn
1a}
{2ee
=3
1dd
1b
2ccn
2dd
=4
0.ee}
=5
{1ee
1dd
2ccn
2dd
=6
0b
2r}
{2b
=7
1dd
1b
2ee
2dd
=8
2.ee
4dd
2ee
1ccn}
{2dd
=9
1ee
1ccn
2dd
2b
=10
0.a}
=11
{1ee
1ccn
2dd
2b
=12
0a
2r}
==
!!!AGN: Romanze, Ballade, Lied
!! Handschriftlich bei Werlin 1646. III. Bd. S. 1968.
!!!ONB: ESAC (Essen Associative Code) Database: ALTDEU
!!!AMT: simple triple
!!!AIN: vox
!!!EED: Helmut Schaffrath
!!!EEV: 1.0
*-
